X:653
T:Andy McGann's
R:jig
S:Unknown band
H:
N:
D:Radio 
Z:Adrian Scahill
M:6/8
L:1/8
K:D
D2F EDB,|DFA d3|edB AFD|FAF ECA,|\
D2F EDB,|DFA d3|edB AFE|FDC D3:||\
d2f ede|fdB AFA|1 (3Bcd B AFD|FED EFA|\
d2f ede|fdB AFA|(3Bcd B AFE|FDC D3:|2 dcB AFD|CEC A,CE|\
ABc d2f| edB AFE|F3 DEF|EDC D3||


